outputs/icons/content/undo_round.svg

<svg xmlns="http://www.w3.org/2000/svg" width="1200" height="1200" fill="none"><g clip-path="url(#a)"><path fill="#000" d="M625 400c-132.5 0-252.5 49.5-345 130l-94.5-94.5C154 404 100 426 100 470.5V750c0 27.5 22.5 50 50 50h279.5c44.5 0 67-54 35.5-85.5L369.5 619c69.5-58 158-94 256-94 158 0 294.5 92 359.5 225 13.5 28 45.5 42 75 32 35.5-11.5 53.5-52 37.5-86-86-175-265-296-472.5-296"/></g><defs><clipPath id="a"><path fill="#fff" d="M0 0h1200v1200H0z"/></clipPath></defs></svg>

<svg width="1200" height="1200" viewBox="0 0 1200 1200" fill="none" xmlns="http://www.w3.org/2000/svg"><g clip-path="url(#clip0_225_3303)"><path d="M625 400C492.5 400 372.5 449.5 280 530L185.5 435.5C154 404 100 426 100 470.5V750C100 777.5 122.5 800 150 800H429.5C474 800 496.5 746 465 714.5L369.5 619C439 561 527.5 525 625.5 525C783.5 525 920 617 985 750C998.5 778 1030.5 792 1060 782C1095.5 770.5 1113.5 730 1097.5 696C1011.5 521 832.5 400 625 400Z" fill="#1D1E23"/></g><defs><clipPath id="clip0_225_3303"><path width="24" fill="white" d="M0 0H1200V1200H0V0z"/></clipPath></defs></svg>
